X:1
T:Monkwearmouth, 88.88.88
T:Monkwearmouth, 88.88.88
T:Charles Henry Steggall, 1893
T:Public Domain Courtesy of the Cyber Hymnal™
C:Charles Henry Steggall, 1893
Z:Public Domain
Z:Courtesy of the Cyber Hymnal™
%%score ( 1 2 ) ( 3 4 )
L:1/8
Q:1/4=115
M:3/4
K:Eb
V:1 treble 
V:2 treble 
V:3 bass 
V:4 bass 
V:1
 [EG]2 | (B2 G2) [EA]2 | F4 [DG]2 | [CE]4 [DF]2 | [EG]4 [DA]2 | [EB]4 [EG]2 | c4 [GB]2 | %7
 G4 [E=A]2 | [DB]4 [DB]2 | (e2 B2) [Ec]2 | ([FB]2 [B,G]2) [CE]2 | [EG]4 [DF]2 | E4 |] %13
V:2
 x2 | E4 x2 | (E2 D2) x2 | x6 | x6 | x6 | (E2 F2) x2 | (G2 F2) x2 | x6 | E4 x2 | x6 | x6 | E4 |] %13
V:3
 [E,B,]2 | (G,2 B,2) [A,,C]2 | [B,,B,]4 [G,,B,]2 | [C,G,]4 [B,,B,]2 | [E,B,]4 [F,B,]2 | %5
 [G,B,]4 [E,B,]2 | (C2 D2) [E,E]2 | (E2 D2) [F,C]2 | [B,,B,]4 [A,B,]2 | (B,2 _D2) [A,C]2 | %10
 ([D,F,]2 [E,G,]2) [A,,A,]2 | (G,>A, B,2) [B,,A,]2 | [E,G,]4 |] %13
V:4
 x2 | E,4 x2 | x6 | x6 | x6 | x6 | A,4 x2 | F,4 x2 | x6 | G,4 x2 | x6 | B,,2 x4 | x4 |] %13

